X:33
T:Belle,La. TJD.33
T:Davy Davy Knick Knack,aka. TJD.33
M:2/4
L:1/16
Q:1/4=120
S:T.J.Dixon MS1, Lincolnshire, 1798
R:quick step
A:Lincolnshire, Holton le Moor
Z:vmp.R.Greig2010
K:G
GFGA .B2.B2|GFGA .B2.B2|dcBc .A2.A2|dcBc .A2.A2|!
GFGA .B2.B2|GFGA .B2.B2|dcBc A2B2|G4-“^quaver in MS”G4:|!
|:dcBc B2B2|{f}g4d4|dcBc .A2.A2|dcBc .A2.A2|!
dcBc B2d2|{f}g4d4|dcBc A2B2|G4-G4:|]

